X: 0501
T: Teviot Bridge
P: Teviot Bridge
C:Gow's Repository 1817
R:Jig (8x24)
B:RSCDS 5-1
Z:Anselm Lingnau <anselm@strathspey.org>
M:6/8
L:1/8
K:A
f|"A"ecA AcA|"D"F2A "A"E2F|"E7"EFG "A"ABc|"E7"[d2E2]"A"[cE] "E7"B2 f|\
  "A"ecA AcA|"D"F2A "A"E2c|
                           "E7"[d2G2]f "A"[eA]c"D"A|"E7"[B3G3D3] "A"[A2C2]||\
f|"A"ecA Ace|"D"fdf fga|"A"ecA "B7"AGA|"E"BGE "E7"E2 c/d/|
  "A"ecA Ace|"D"fdf fga|"A"ecA "E7"BGE|"A"A3 A2 f|\
  "A"ecA Ace|"D"fdf fga|
                        "A"ecA "F#m"AG"B7"A|"E"BGE E2 "E7"c/d/|\
  "A"ece "D"fdf|"E"geg "F#m"[aA]g"D"f|"A"edc "E7"BAG|"A"A3 [a2c2A2]|]
%%center Book05/0501-Teviot_Bridge-AL.abc

%%sep 1 1 500
%%sep 1 1 500

